X:2733
T:Castle Kelly
R:reel
H:Related to "Pull Out the Knife and Stick It in Again", jig#49
D:Oisin: Over the Moor to Maggie
Z:id:hn-reel-118
M:C|
K:Ador
A2cA ~A2cA|G2EG ~G2EG|A2cA GAcd|ecdB cAAG|
A2cA ~A2cA|G2EG ~G2EG|A2cA GAcd|ecdB cA~A2:|
|:agec d2ed|cAGE ~G3a|agec d2cd|eaag ~a3f|
gedc d2ed|cAGE G2EG|A2cA GAcd|1 ecdB cA~A2:|2 ecdB cAAG||


